images/logo.svg

<svg xmlns:svg="http://www.w3.org/2000/svg" xmlns="http://www.w3.org/2000/svg" width="160" height="36" viewBox="0 0 160 36" fill="none" >
<path d="M57.967 30.181C55.1334 30.181 52.0097 29.2214 48.5959 27.3023V23.1515C51.8089 25.3162 54.9437 26.3985 58.0005 26.3985C59.4061 26.3985 60.5217 26.1419 61.3473 25.6286C62.1951 25.093 62.6191 24.3566 62.6191 23.4193C62.6191 22.5713 62.2286 21.9019 61.4477 21.4109C60.6667 20.8977 59.4619 20.4402 57.8331 20.0385C54.9102 19.2798 52.9245 18.6326 51.8758 18.097C49.5553 16.9143 48.3951 15.1402 48.3951 12.7747C48.3951 10.744 49.2541 9.13724 50.9721 7.9545C52.6902 6.77177 54.8098 6.1804 57.3311 6.1804C60.4102 6.1804 63.188 7.07303 65.6647 8.85829V13.009C62.831 10.956 60.0532 9.92945 57.3311 9.92945C55.9031 9.92945 54.7206 10.1972 53.7835 10.7328C52.8464 11.2684 52.3778 12.016 52.3778 12.9756C52.3778 13.5558 52.6456 14.0579 53.181 14.4819C53.7165 14.8836 54.2966 15.196 54.9214 15.4191C55.5684 15.62 56.5279 15.8766 57.7996 16.189C59.1384 16.5238 60.2428 16.8473 61.113 17.1598C62.0055 17.4722 62.9091 17.9073 63.8239 18.4652C64.7387 19.0008 65.4192 19.6814 65.8655 20.5071C66.334 21.3328 66.5683 22.3147 66.5683 23.4528C66.5683 25.5728 65.7539 27.2242 64.1251 28.4069C62.5186 29.5896 60.4659 30.181 57.967 30.181Z" fill="#F7F6FF"/>
<path d="M74.6263 30.181C73.8453 30.181 73.0867 30.0917 72.3504 29.9132C71.6365 29.7347 70.9448 29.4558 70.2754 29.0764C69.606 28.6747 69.0594 28.1056 68.6355 27.3692C68.2115 26.6105 67.9996 25.729 67.9996 24.7248C67.9773 22.9172 68.602 21.5448 69.8738 20.6075C71.1456 19.648 72.964 19.1682 75.3291 19.1682H80.7175V18.097C80.7175 17.1151 80.3158 16.3787 79.5126 15.8878C78.7094 15.3745 77.6719 15.1179 76.4001 15.1179C73.9681 15.1179 72.5512 15.9212 72.1496 17.528L68.4681 17.5949C68.5128 15.832 69.2825 14.4372 70.7774 13.4107C72.2947 12.3842 74.1466 11.8709 76.3331 11.8709C78.542 11.8709 80.4274 12.4065 81.9893 13.4777C83.5734 14.5488 84.3655 15.9324 84.3655 17.6284V29.9132H80.7175V27.2353C80.2043 27.9494 79.4234 28.6189 78.3747 29.2438C77.3483 29.8686 76.0989 30.181 74.6263 30.181ZM74.9275 27.001C76.4001 27.001 77.7276 26.4989 78.9102 25.4947C80.115 24.4905 80.7175 23.3078 80.7175 21.9465H75.9985C74.5482 21.9465 73.466 22.2254 72.7521 22.7833C72.0604 23.3189 71.7592 23.9995 71.8484 24.8252C71.9154 25.584 72.25 26.1419 72.8525 26.4989C73.4549 26.8336 74.1466 27.001 74.9275 27.001Z" fill="#F7F6FF"/>
<path d="M87.3096 29.9132L87.2427 15.4861V11.5697C87.2427 9.44966 88.1129 7.85408 89.8532 6.78292C91.5936 5.71177 93.8917 5.53324 96.7476 6.24735L96.7142 9.19303C94.8623 8.70208 93.4566 8.70208 92.4972 9.19303C91.5601 9.66166 91.0915 10.465 91.0915 11.6031V12.1722H96.5803V15.4861H91.0915L91.125 29.9132H87.3096Z" fill="#F7F6FF"/>
<path d="M106.699 30.181C104.156 30.181 102.003 29.2884 100.24 27.5031C98.4773 25.6955 97.5959 23.5309 97.5959 21.0092C97.5959 18.4652 98.4884 16.3118 100.273 14.5488C102.058 12.7636 104.2 11.8709 106.699 11.8709C108.908 11.8709 110.849 12.5962 112.523 14.0467C114.218 15.4749 115.256 17.2713 115.635 19.436C115.858 20.4848 115.87 21.489 115.669 22.4486H101.411C101.634 23.7652 102.237 24.8141 103.219 25.5951C104.2 26.3539 105.361 26.7332 106.699 26.7332C108.752 26.7332 110.392 26.008 111.619 24.5574H115.072C115.072 24.5574 114.673 26.9028 111.619 28.909C110.057 29.757 108.417 30.181 106.699 30.181ZM101.411 19.4694H111.887C111.664 18.2867 111.072 17.2937 110.113 16.4903C109.176 15.6869 108.027 15.2852 106.666 15.2852C105.305 15.2852 104.145 15.6981 103.185 16.5238C102.226 17.3271 101.634 18.309 101.411 19.4694Z" fill="#F7F6FF"/>
<path d="M143.617 30.181C142.836 30.181 142.078 30.0917 141.342 29.9132C140.628 29.7347 139.936 29.4558 139.267 29.0764C138.597 28.6747 138.051 28.1056 137.627 27.3692C137.203 26.6105 136.991 25.729 136.991 24.7248C136.968 22.9172 137.593 21.5448 138.865 20.6075C140.137 19.648 141.955 19.1682 144.32 19.1682H149.709V18.097C149.709 17.1151 149.307 16.3787 148.504 15.8878C147.7 15.3745 146.663 15.1179 145.391 15.1179C142.959 15.1179 141.542 15.9212 141.141 17.528L137.459 17.5949C137.504 15.832 138.274 14.4372 139.769 13.4107C141.286 12.3842 143.138 11.8709 145.324 11.8709C147.533 11.8709 149.419 12.4065 150.98 13.4777C152.565 14.5488 153.357 15.9324 153.357 17.6284V29.9132H149.709V27.2353C149.195 27.9494 148.414 28.6189 147.366 29.2438C146.339 29.8686 145.09 30.181 143.617 30.181ZM143.919 27.001C145.391 27.001 146.719 26.4989 147.901 25.4947C149.106 24.4905 149.709 23.3078 149.709 21.9465H144.99C143.539 21.9465 142.457 22.2254 141.743 22.7833C141.051 23.3189 140.75 23.9995 140.84 24.8252C140.906 25.584 141.241 26.1419 141.844 26.4989C142.446 26.8336 143.138 27.001 143.919 27.001Z" fill="#F7F6FF"/>
<path d="M156.151 29.9132V6.78292H160V29.9132H156.151Z" fill="#F7F6FF"/>
<path fill-rule="evenodd" clip-rule="evenodd" d="M117.906 6.78292H128.08C130.333 6.78292 132.208 7.55282 133.702 9.09261C135.197 10.6101 135.945 12.4511 135.945 14.6158C135.945 16.8027 135.197 18.6438 133.702 20.1389C132.23 21.6118 130.356 22.3593 128.08 22.3817L121.888 22.4151V29.9132H117.906V6.78292ZM127.812 18.8L121.888 18.8334V10.3981L127.812 10.3646C129.128 10.3646 130.166 10.7551 130.925 11.5362C131.706 12.3172 132.096 13.2991 132.096 14.4819C132.096 15.6869 131.706 16.7134 130.925 17.5614C130.144 18.3871 129.106 18.8 127.812 18.8Z" fill="#F7F6FF"/>
<path d="M15.5874 0.222168C14.5053 0.222168 13.4675 0.652049 12.7023 1.41724L0.682861 13.4369C0.227615 13.8922 -3.72714e-06 14.4888 0 15.0855C3.72723e-06 15.6822 0.22763 16.2789 0.682874 16.7341L8.55959 24.6109V10.6662C8.55959 9.62553 9.3966 8.7819 10.4373 8.7819C14.8339 8.7819 25.5359 8.7819 26.9956 8.7819L35.5552 0.222289L15.5874 0.222168Z" fill="#F7F6FF"/>
<path d="M8.55996 27.218H25.1117C26.1524 27.218 26.996 26.3744 26.996 25.3337V11.389L34.8727 19.2657C35.328 19.721 35.5556 20.3177 35.5556 20.9144C35.5556 21.511 35.328 22.1077 34.8727 22.563L22.8533 34.5827C22.0881 35.3478 21.0503 35.7777 19.9682 35.7777L0.000373357 35.7776L8.55996 27.218Z" fill="#F7F6FF"/>
</svg>

<svg xmlns="http://www.w3.org/2000/svg" width="160" height="36" fill="none"><path fill="#F7F6FF" d="M57.967 30.181c-2.834 0-5.957-.96-9.371-2.879v-4.15c3.213 2.164 6.348 3.246 9.405 3.246 1.405 0 2.52-.256 3.346-.77.848-.535 1.272-1.271 1.272-2.209 0-.848-.39-1.517-1.171-2.008-.781-.513-1.986-.97-3.615-1.373-2.923-.758-4.908-1.405-5.957-1.941-2.32-1.183-3.48-2.957-3.48-5.322 0-2.031.858-3.638 2.576-4.82 1.718-1.183 3.838-1.775 6.36-1.775 3.078 0 5.856.893 8.333 2.678v4.151c-2.834-2.053-5.612-3.08-8.334-3.08-1.428 0-2.61.268-3.548.804-.937.535-1.405 1.283-1.405 2.243 0 .58.268 1.082.803 1.506a6.563 6.563 0 0 0 1.74.937c.647.201 1.607.458 2.879.77 1.338.335 2.443.658 3.313.97.892.313 1.796.748 2.71 1.306.916.536 1.596 1.216 2.042 2.042.469.826.703 1.808.703 2.946 0 2.12-.814 3.771-2.443 4.954-1.606 1.183-3.66 1.774-6.158 1.774ZM74.626 30.181c-.78 0-1.54-.09-2.276-.268a8.258 8.258 0 0 1-2.075-.837c-.669-.401-1.216-.97-1.64-1.707-.424-.759-.635-1.64-.635-2.644-.023-1.808.602-3.18 1.874-4.117 1.272-.96 3.09-1.44 5.455-1.44h5.389v-1.071c0-.982-.402-1.718-1.205-2.21-.804-.513-1.841-.77-3.113-.77-2.432 0-3.849.804-4.25 2.411l-3.682.067c.045-1.763.814-3.158 2.31-4.184 1.517-1.027 3.369-1.54 5.555-1.54 2.209 0 4.094.535 5.656 1.607 1.584 1.07 2.376 2.454 2.376 4.15v12.285h-3.647v-2.678c-.514.714-1.295 1.384-2.343 2.009-1.027.625-2.276.937-3.749.937Zm.301-3.18c1.473 0 2.8-.502 3.983-1.506 1.205-1.005 1.808-2.187 1.808-3.549h-4.72c-1.45 0-2.532.28-3.246.837-.692.536-.993 1.216-.904 2.042.067.759.402 1.317 1.005 1.674.602.335 1.294.502 2.075.502ZM87.31 29.913l-.067-14.427V11.57c0-2.12.87-3.716 2.61-4.787 1.74-1.071 4.039-1.25 6.895-.536l-.034 2.946c-1.852-.49-3.257-.49-4.217 0-.937.469-1.406 1.272-1.406 2.41v.57h5.49v3.313h-5.49l.034 14.427H87.31ZM106.699 30.181c-2.543 0-4.696-.893-6.459-2.678-1.763-1.808-2.644-3.972-2.644-6.494 0-2.544.892-4.697 2.677-6.46 1.785-1.785 3.927-2.678 6.426-2.678 2.209 0 4.15.725 5.824 2.176 1.695 1.428 2.733 3.224 3.112 5.389.223 1.049.235 2.053.034 3.013h-14.258c.223 1.316.826 2.365 1.808 3.146.981.759 2.142 1.138 3.48 1.138 2.053 0 3.693-.725 4.92-2.176h3.453s-.399 2.346-3.453 4.352c-1.562.848-3.202 1.272-4.92 1.272Zm-5.288-10.712h10.476c-.223-1.182-.815-2.175-1.774-2.979-.937-.803-2.086-1.205-3.447-1.205-1.361 0-2.521.413-3.481 1.239-.959.803-1.551 1.785-1.774 2.945ZM143.617 30.181c-.781 0-1.539-.09-2.275-.268a8.25 8.25 0 0 1-2.075-.837c-.67-.401-1.216-.97-1.64-1.707-.424-.759-.636-1.64-.636-2.644-.023-1.808.602-3.18 1.874-4.117 1.272-.96 3.09-1.44 5.455-1.44h5.389v-1.071c0-.982-.402-1.718-1.205-2.21-.804-.513-1.841-.77-3.113-.77-2.432 0-3.849.804-4.25 2.411l-3.682.067c.045-1.763.815-3.158 2.31-4.184 1.517-1.027 3.369-1.54 5.555-1.54 2.209 0 4.095.535 5.656 1.607 1.585 1.07 2.377 2.454 2.377 4.15v12.285h-3.648v-2.678c-.514.714-1.295 1.384-2.343 2.009-1.027.625-2.276.937-3.749.937Zm.302-3.18c1.472 0 2.8-.502 3.982-1.506 1.205-1.005 1.808-2.187 1.808-3.549h-4.719c-1.451 0-2.533.28-3.247.837-.692.536-.993 1.216-.903 2.042.066.759.401 1.317 1.004 1.674.602.335 1.294.502 2.075.502ZM156.151 29.913V6.783H160v23.13h-3.849Z"/><path fill="#F7F6FF" fill-rule="evenodd" d="M117.906 6.783h10.174c2.253 0 4.128.77 5.622 2.31 1.495 1.517 2.243 3.358 2.243 5.523 0 2.187-.748 4.028-2.243 5.523-1.472 1.473-3.346 2.22-5.622 2.243l-6.192.033v7.498h-3.982V6.783Zm9.906 12.017-5.924.033v-8.435l5.924-.033c1.316 0 2.354.39 3.113 1.171.781.781 1.171 1.763 1.171 2.946 0 1.205-.39 2.231-1.171 3.08-.781.825-1.819 1.238-3.113 1.238Z" clip-rule="evenodd"/><path fill="#F7F6FF" d="M15.587.222a4.08 4.08 0 0 0-2.885 1.195L.682 13.437A2.324 2.324 0 0 0 0 15.086c0 .596.228 1.193.683 1.648l7.877 7.877V10.666c0-1.04.837-1.884 1.877-1.884h16.559l8.56-8.56H15.586ZM8.56 27.218h16.552c1.04 0 1.884-.844 1.884-1.884V11.389l7.877 7.877c.455.455.683 1.052.683 1.648 0 .597-.228 1.194-.683 1.649l-12.02 12.02a4.08 4.08 0 0 1-2.885 1.195H0l8.56-8.56Z"/></svg>
